Papirus-nordic/22x22/places/folder-red-pcloud.svg

<svg xmlns="http://www.w3.org/2000/svg" width="22" height="22" version="1">
 <rect style="opacity:0.2" width="20" height="12" x="1" y="8.5" rx="1" ry="1"/>
 <path style="fill:#ae4f58" d="m 1,16 c 0,0.554 0.446,1 1,1 h 18 c 0.554,0 1,-0.446 1,-1 V 5 C 21,4.446 20.554,4 20,4 H 10 V 3 C 10,2.446 9.554,2 9,2 H 2 C 1.446,2 1,2.446 1,3"/>
 <rect style="opacity:0.2" width="20" height="12" x="1" y="7.5" rx="1" ry="1"/>
 <rect style="fill:#e4e4e4" width="16" height="8" x="3" y="6" rx="1" ry="1"/>
 <rect style="fill:#bf616a" width="20" height="12" x="1" y="8" rx="1" ry="1"/>
 <path style="opacity:0.1;fill:#ffffff" d="M 2,2 C 1.446,2 1,2.446 1,3 v 0.5 c 0,-0.554 0.446,-1 1,-1 h 7 c 0.554,0 1,0.446 1,1 V 3 C 10,2.446 9.554,2 9,2 Z m 8,2 v 0.5 h 10 c 0.554,0 1,0.446 1,1 V 5 C 21,4.446 20.554,4 20,4 Z"/>
 <path style="fill:#974a4d" d="M 10.818359,10 A 3.6363636,3.6363636 0 0 0 7.4707031,12.216797 2.9090909,2.9090909 0 0 0 5,15.091797 2.9090909,2.9090909 0 0 0 7.7695312,17.992188 V 18 H 14.835938 A 1.8008658,1.8008658 0 0 0 15.041016,17.986328 1.75,1.75 0 0 0 15.25,18 1.75,1.75 0 0 0 17,16.25 1.75,1.75 0 0 0 15.804688,14.591797 1.8181818,1.8181818 0 0 0 15.908203,14 1.8181818,1.8181818 0 0 0 14.148438,12.185547 3.6363636,3.6363636 0 0 0 10.818359,10 Z M 9,12 h 1 1.910156 v 3 H 10 v 1.5 H 9 V 15 Z m 1,1 v 1 h 1 v -1 z"/>
</svg>

<svg xmlns="http://www.w3.org/2000/svg" width="22" height="22" version="1"><rect width="20" height="12" x="1" y="8.5" rx="1" ry="1" opacity=".2"/><path d="M1 16c0 .554.446 1 1 1h18c.554 0 1-.446 1-1V5c0-.554-.446-1-1-1H10V3c0-.554-.446-1-1-1H2c-.554 0-1 .446-1 1" fill="#ae4f58"/><rect width="20" height="12" x="1" y="7.5" rx="1" ry="1" opacity=".2"/><rect width="16" height="8" x="3" y="6" rx="1" ry="1" fill="#e4e4e4"/><rect width="20" height="12" x="1" y="8" rx="1" ry="1" fill="#bf616a"/><path d="M2 2c-.554 0-1 .446-1 1v.5c0-.554.446-1 1-1h7c.554 0 1 .446 1 1V3c0-.554-.446-1-1-1zm8 2v.5h10c.554 0 1 .446 1 1V5c0-.554-.446-1-1-1z" opacity=".1" fill="#fff"/><path d="M10.818 10a3.636 3.636 0 0 0-3.347 2.217A2.91 2.91 0 0 0 5 15.092a2.91 2.91 0 0 0 2.77 2.9V18h7.066a1.8 1.8 0 0 0 .205-.014 1.75 1.75 0 0 0 .209.014A1.75 1.75 0 0 0 17 16.25a1.75 1.75 0 0 0-1.195-1.658 1.818 1.818 0 0 0 .103-.592 1.818 1.818 0 0 0-1.76-1.814A3.636 3.636 0 0 0 10.818 10zM9 12h2.91v3H10v1.5H9V15zm1 1v1h1v-1z" fill="#974a4d"/></svg>
